COLOR/action 16/16/edit-select-all-layers.svg

<svg height="16" width="16" xmlns="http://www.w3.org/2000/svg"><g fill="#1a7fd4"><path d="m0 6.000001h2v3.999999h-2z"/><path d="m14 6.000001h2v3.999999h-2z"/><g transform="rotate(-90)"><path d="m-15.999997 5.999995h2v3.999999h-2z"/><path d="m-1.999997 5.999995h2v3.999999h-2z"/></g></g><path d="m3 2.9999999 2.499999 3.03382h7.500001l-2.5-3.03382zm0 3.48308 2.499999 3.0338305h7.500001l-2.5-3.0338305zm0 3.4830905 2.499999 3.0338296h7.500001l-2.5-3.0338296z" fill="#c43ac4"/><g fill="#1a7fd4"><path d="m2 4v-2h2v-2h-4v4z"/><path d="m2 4v-2h2v-2h-4v4z" transform="matrix(-1 0 0 -1 16 16)"/><path d="m2 4v-2h2v-2h-4v4z" transform="matrix(0 1 -1 0 16 0)"/><path d="m2 4v-2h2v-2h-4v4z" transform="matrix(0 -1 1 0 0 16)"/></g><path d="m1.999994 1.499997v.5h2v-.5zm4 0v.5h4v-.5zm6 0v.5h2v-.5zm-9 1.5 2.458984 2.984375h5.041016l.04102.050781h2.458984l-.41211-.5h-7.087894l-2.087891-2.535156zm-3 .5v.5h2v-.5zm14 0v.5h2v-.5zm-11 2.984375 2.458984 2.9824219h5.041016l.04102.050781h2.458984l-.41211-.5h-7.087894l-2.087891-2.5332029zm-3 3.015625v.5h2v-.5zm14 0v.5h2v-.5zm-11 .4667969 2.5 3.0332031h7.5l-.41211-.5h-7.08789l-2.087891-2.5332031zm-3 5.5332031v.5h4v-.5zm6 0v.5h4v-.5zm6 0v.5h4v-.5z" opacity=".2"/><path d="m0 0v.5h4v-.5zm6 0v.5h4v-.5zm6 0v.5h4v-.5zm-9 3 .412109.5h7.087891l2.08789 2.5351563h.41211l-2.5-3.0351563zm-3 3v.5h2v-.5zm14 0v.5h2v-.5zm-11 .484375.412109.5h7.087891l2.08789 2.5332031h.41211l-2.458984-2.9824218h-5.041016l-.041016-.0507813zm0 3.4824219.412109.5000001h7.087891l2.08789 2.533203h.41211l-2.458984-2.982422h-5.041016l-.041016-.0507811zm-3 2.0332031v.5h2v-.5zm14 0v.5h2v-.5zm-12 2v.5h2v-.5zm4 0v.5h4v-.5zm6 0v.5h2v-.5z" fill="#fff" opacity=".3"/></svg>

<?xml version="1.0" encoding="UTF-8" standalone="no"?>
<svg
   xmlns:dc="http://purl.org/dc/elements/1.1/"
   xmlns:cc="http://creativecommons.org/ns#"
   xmlns:rdf="http://www.w3.org/1999/02/22-rdf-syntax-ns#"
   xmlns:svg="http://www.w3.org/2000/svg"
   xmlns="http://www.w3.org/2000/svg"
   xmlns:sodipodi="http://sodipodi.sourceforge.net/DTD/sodipodi-0.dtd"
   xmlns:inkscape="http://www.inkscape.org/namespaces/inkscape"
   height="16"
   width="16"
   version="1.1"
   id="svg22"
   sodipodi:docname="edit-select-all-layers.svg"
   inkscape:version="0.92.4 (5da689c313, 2019-01-14)">
  <metadata
     id="metadata28">
    <rdf:RDF>
      <cc:Work
         rdf:about="">
        <dc:format>image/svg+xml</dc:format>
        <dc:type
           rdf:resource="http://purl.org/dc/dcmitype/StillImage" />
      </cc:Work>
    </rdf:RDF>
  </metadata>
  <defs
     id="defs26" />
  <sodipodi:namedview
     pagecolor="#ffffff"
     bordercolor="#808080"
     borderopacity="1"
     objecttolerance="10"
     gridtolerance="10"
     guidetolerance="10"
     inkscape:pageopacity="0"
     inkscape:pageshadow="2"
     inkscape:window-width="1920"
     inkscape:window-height="1016"
     id="namedview24"
     showgrid="false"
     inkscape:zoom="14.75"
     inkscape:cx="8"
     inkscape:cy="8"
     inkscape:window-x="0"
     inkscape:window-y="27"
     inkscape:window-maximized="1"
     inkscape:current-layer="g866" />
  <g
     fill="#1a7fd4"
     id="g10">
    <path
       d="m0 6.000001h2v3.999999h-2z"
       id="path2" />
    <path
       d="m14 6.000001h2v3.999999h-2z"
       id="path4" />
    <path
       d="m-15.999997 5.999995h2v3.999999h-2z"
       transform="rotate(-90)"
       id="path6" />
    <path
       d="m-1.999997 5.999995h2v3.999999h-2z"
       transform="rotate(-90)"
       id="path8" />
  </g>
  <path
     d="m3 2.9999999 2.499999 3.03382h7.500001l-2.5-3.03382zm0 3.48308 2.499999 3.0338305h7.500001l-2.5-3.0338305zm0 3.4830905 2.499999 3.0338296h7.500001l-2.5-3.0338296z"
     fill="#c43ac4"
     id="path12" />
  <path
     d="m2 4v-2h2v-2h-4v4z"
     fill="#1a7fd4"
     id="path14" />
  <path
     d="m2 4v-2h2v-2h-4v4z"
     fill="#1a7fd4"
     transform="matrix(-1 0 0 -1 16 16)"
     id="path16" />
  <path
     d="m2 4v-2h2v-2h-4v4z"
     fill="#1a7fd4"
     transform="matrix(0 1 -1 0 16 0)"
     id="path18" />
  <path
     d="m2 4v-2h2v-2h-4v4z"
     fill="#1a7fd4"
     transform="matrix(0 -1 1 0 0 16)"
     id="path20" />
  <g
     id="g866">
    <path
       d="m 1.999994,1.499997 v 0.5 h 2 v -0.5 z m 4,0 v 0.5 h 4 v -0.5 z m 6,0 v 0.5 h 2 v -0.5 z m -9,1.5 2.458984,2.984375 h 5.041016 l 0.04102,0.050781 h 2.458984 l -0.41211,-0.5 H 5.499994 L 3.412103,2.999997 Z m -3,0.5 v 0.5 h 2 v -0.5 z m 14,0 v 0.5 h 2 v -0.5 z m -11,2.984375 2.458984,2.9824219 h 5.041016 l 0.04102,0.050781 h 2.458984 l -0.41211,-0.5 H 5.499994 L 3.412103,6.484372 Z m -3,3.015625 v 0.5 h 2 v -0.5 z m 14,0 v 0.5 h 2 v -0.5 z m -11,0.4667969 2.5,3.0332031 h 7.5 l -0.41211,-0.5 H 5.499994 L 3.412103,9.9667939 Z m -3,5.5332031 v 0.5 h 4 v -0.5 z m 6,0 v 0.5 h 4 v -0.5 z m 6,0 v 0.5 h 4 v -0.5 z"
       id="path835"
       inkscape:connector-curvature="0"
       style="fill:#000000;fill-opacity:1;opacity:0.2" />
    <path
       d="M 0,0 V 0.5 H 4 V 0 Z m 6,0 v 0.5 h 4 V 0 Z m 6,0 v 0.5 h 4 V 0 Z M 3,3 3.412109,3.5 H 10.5 l 2.08789,2.5351563 H 13 L 10.5,3 Z M 0,6 V 6.5 H 2 V 6 Z m 14,0 v 0.5 h 2 V 6 Z m -11,0.484375 0.412109,0.5 H 10.5 l 2.08789,2.5332031 H 13 L 10.541016,6.5351563 H 5.5 L 5.458984,6.484375 Z M 3,9.9667969 3.412109,10.466797 H 10.5 L 12.58789,13 H 13 L 10.541016,10.017578 H 5.5 L 5.458984,9.9667969 Z M 0,12 v 0.5 H 2 V 12 Z m 14,0 v 0.5 h 2 V 12 Z M 2,14 v 0.5 H 4 V 14 Z m 4,0 v 0.5 h 4 V 14 Z m 6,0 v 0.5 h 2 V 14 Z"
       id="path869"
       inkscape:connector-curvature="0"
       style="fill:#ffffff;fill-opacity:1;opacity:0.3" />
  </g>
</svg>
